X:73
T:Como somos per consello (Cantiga 119)
C:Las Cantigas de Santa Maria
C:Alphonso X, El Sabio (1221-1284)
R:Cantigas
N:Remarks :     %Tune infos
Q:1/4=120     %Tempo
M:6/8     %Meter
L:1/8     %
K:F
_B2B B2G | B2B B2G | B2c d2c | [M:9/8] BAG F6 | [M:6/8] AAA A2G | AAA A2G | A2G _B2A | [M:9/8] G2F G6 ::
d3 c2e f2e | d2c _B2A G2A | B6 z3 | d3 c2e f2e | d2c _B2A G2F | G6 z3 :|





